src/travel-places/transport-ground/1F684.svg

<svg id="emoji" viewBox="0 0 72 72" xmlns="http://www.w3.org/2000/svg">
  <g id="grid">
    <path fill="#b3b3b3" d="M68,4V68H4V4H68m4-4H0V72H72V0Z"/>
    <path fill="none" stroke="#00a5ff" stroke-miterlimit="10" stroke-width="0.1" d="M12.923,10.9583H59.0769A1.9231,1.9231,0,0,1,61,12.8814V59.0352a1.9231,1.9231,0,0,1-1.9231,1.9231H12.9231A1.9231,1.9231,0,0,1,11,59.0352V12.8813A1.923,1.923,0,0,1,12.923,10.9583Z"/>
    <rect x="16" y="4" rx="2.2537" width="40" height="64" fill="none" stroke="#00a5ff" stroke-miterlimit="10" stroke-width="0.1"/>
    <rect x="16" y="4" rx="2.2537" width="40" height="64" transform="translate(72) rotate(90)" fill="none" stroke="#00a5ff" stroke-miterlimit="10" stroke-width="0.1"/>
    <circle cx="36" cy="36" r="29" fill="none" stroke="#00a5ff" stroke-miterlimit="10" stroke-width="0.1"/>
  </g>
  <g id="color">
    <g>
      <path fill="#9b9b9a" d="M68,48v5.5H12.652a1.0042,1.0042,0,0,1-.5031-1.8732L18.4133,48Z"/>
      <path fill="#3f3f3f" d="M68,36.5H41.8438a1.2857,1.2857,0,0,1-.69-2.37l7.2593-4.62a12.8567,12.8567,0,0,1,6.9026-2.01H68"/>
      <path fill="#3f3f3f" d="M15.6108,36.5h9.502a12.857,12.857,0,0,0,6.9027-2.01L39.2748,29.87a1.2857,1.2857,0,0,0-.69-2.37H29.1108"/>
      <path fill="#d22f27" d="M67.9321,44H18.64a.5714.5714,0,0,1-.3068-1.0535L21.56,40.8934A5.7141,5.7141,0,0,1,24.6278,40H67.9321"/>
    </g>
  </g>
  <g id="line">
    <g>
      <path fill="none" stroke="#000" stroke-linecap="round" stroke-miterlimit="10" stroke-width="2" d="M67,36.5H41.8438a1.2857,1.2857,0,0,1-.69-2.37l7.2593-4.62a12.8567,12.8567,0,0,1,6.9026-2.01H67"/>
      <path fill="none" stroke="#000" stroke-linecap="round" stroke-miterlimit="10" stroke-width="2" d="M15.6108,36.5h9.502a12.857,12.857,0,0,0,6.9027-2.01L39.2748,29.87a1.2857,1.2857,0,0,0-.69-2.37H29.1108"/>
      <path fill="none" stroke="#000" stroke-linecap="round" stroke-miterlimit="10" stroke-width="2" d="M67,48H8.2691A3,3,0,0,1,6.605,42.5038L31.5537,25.8714A23.3767,23.3767,0,0,1,44.521,21.9452H67"/>
      <path fill="none" stroke="#000" stroke-linecap="round" stroke-miterlimit="10" stroke-width="2" d="M67,53.5H12.652a1.0042,1.0042,0,0,1-.5031-1.8732L18.4133,48"/>
      <path fill="none" stroke="#000" stroke-linecap="round" stroke-miterlimit="10" stroke-width="2" d="M66.9321,44H18.64a.5714.5714,0,0,1-.3068-1.0535L21.56,40.8934A5.7141,5.7141,0,0,1,24.6278,40H66.9321"/>
    </g>
  </g>
</svg>

<svg viewBox="0 0 72 72" xmlns="http://www.w3.org/2000/svg"><path fill="#b3b3b3" d="M68 4v64H4V4h64m4-4H0v72h72V0z"/><path fill="none" stroke="#00a5ff" stroke-miterlimit="10" stroke-width=".1" d="M12.923 10.958h46.154A1.923 1.923 0 0161 12.881v46.154a1.923 1.923 0 01-1.923 1.923H12.923A1.923 1.923 0 0111 59.035V12.881a1.923 1.923 0 011.923-1.923z"/><rect x="16" y="4" rx="2.254" width="40" height="64" fill="none" stroke="#00a5ff" stroke-miterlimit="10" stroke-width=".1"/><rect x="16" y="4" rx="2.254" width="40" height="64" transform="rotate(90 36 36)" fill="none" stroke="#00a5ff" stroke-miterlimit="10" stroke-width=".1"/><circle cx="36" cy="36" r="29" fill="none" stroke="#00a5ff" stroke-miterlimit="10" stroke-width=".1"/><g stroke-linecap="round" stroke-miterlimit="10" stroke-width="6" stroke="#fff" fill="none" stroke-linejoin="round"><path d="M67 36.5H41.844a1.286 1.286 0 01-.69-2.37l7.26-4.62a12.857 12.857 0 016.902-2.01H67m-51.39 9h9.503a12.857 12.857 0 006.903-2.01l7.259-4.62a1.286 1.286 0 00-.69-2.37H29.11"/><path d="M67 48H8.27a3 3 0 01-1.665-5.496L31.554 25.87a23.377 23.377 0 0112.967-3.926H67"/><path d="M67 53.5H12.652a1.004 1.004 0 01-.503-1.873L18.413 48m48.519-4H18.64a.571.571 0 01-.307-1.054l3.227-2.053A5.714 5.714 0 0124.628 40h42.304"/></g><path fill="#9b9b9a" d="M68 48v5.5H12.652a1.004 1.004 0 01-.503-1.873L18.413 48z"/><path fill="#3f3f3f" d="M68 36.5H41.844a1.286 1.286 0 01-.69-2.37l7.26-4.62a12.857 12.857 0 016.902-2.01H68m-52.39 9h9.503a12.857 12.857 0 006.903-2.01l7.259-4.62a1.286 1.286 0 00-.69-2.37H29.11"/><path fill="#d22f27" d="M67.932 44H18.64a.571.571 0 01-.307-1.054l3.227-2.053A5.714 5.714 0 0124.628 40h43.304"/><g><g fill="none" stroke="#000" stroke-linecap="round" stroke-miterlimit="10" stroke-width="2"><path d="M67 36.5H41.844a1.286 1.286 0 01-.69-2.37l7.26-4.62a12.857 12.857 0 016.902-2.01H67m-51.39 9h9.503a12.857 12.857 0 006.903-2.01l7.259-4.62a1.286 1.286 0 00-.69-2.37H29.11"/><path d="M67 48H8.27a3 3 0 01-1.665-5.496L31.554 25.87a23.377 23.377 0 0112.967-3.926H67"/><path d="M67 53.5H12.652a1.004 1.004 0 01-.503-1.873L18.413 48m48.519-4H18.64a.571.571 0 01-.307-1.054l3.227-2.053A5.714 5.714 0 0124.628 40h42.304"/></g></g></svg>
